Adwaita++-Dark/status/symbolic/arch-unknown-symbolic.svg

<svg height="16" width="16" xmlns="http://www.w3.org/2000/svg">
  <path d="m8 1c-1.825 1.725-5 3-6 3.25 0 4.75 2.25 10 6 10.75 3.75-.75 6-6 6-10.75-1-.25-4.175-1.525-6-3.25zm0 4c.6179.0016 1.2202.194 1.7246.5508l.2754-.5508 1 2h-2l.2695-.5391c-.3569-.2962-.8057-.4591-1.2695-.4609-1.1046 0-2 .8954-2 2h-1c0-1.6569 1.3431-3 3-3zm2 3h1c0 1.6569-1.3431 3-3 3-.6179-.002-1.2202-.194-1.7246-.551l-.2754.551-1-2h2l-.2695.5391c.3569.2962.8057.4591 1.2695.4609 1.1046 0 2-.8954 2-2z" fill="#e6ddff"/>
</svg>

<svg xmlns="http://www.w3.org/2000/svg" width="16" height="16" version="1.1">
 <path style="fill:#E6DDFF" d="M 8,1 C 6.175,2.725 3,4 2,4.25 2,9 4.25,14.25 8,15 11.75,14.25 14,9 14,4.25 13,4 9.825,2.725 8,1 Z M 8,5 C 8.6179,5.0016 9.2202,5.194 9.7246,5.5508 L 10,5 11,7 H 9 L 9.2695,6.4609 C 8.9126,6.1647 8.4638,6.0018 8,6 6.8954,6 6,6.8954 6,8 H 5 C 5,6.3431 6.3431,5 8,5 Z M 10,8 H 11 C 11,9.6569 9.6569,11 8,11 7.3821,10.998 6.7798,10.806 6.2754,10.449 L 6,11 5,9 H 7 L 6.7305,9.5391 C 7.0874,9.8353 7.5362,9.9982 8,10 9.1046,10 10,9.1046 10,8 Z"/>
</svg>
